!!!!SEGMENT: pl-kozmzk--mzk-m-346--042_walczynski-franciszek--cantantibus-organis-andantino.krn
!!!cenid: 18xx:2837
!!!COM: Walczyński, Franciszek
!!!COM-rismid: pe30021989
!!!CDT: ~1852-1937
!!!CNT: Polish
!!!OTL: Cantantibus organis – Andantino
!!!PDT: 1898
!!!AGN: Secular
!!!SMS-siglum: PL-KOZmzk
!!!SMS-shelfmark: mzk/m/346
!!!SMS-shelfwork: 042 G
!!!SMS-variant:
!!!SMS-altvar:
!!!NIFC-rismid: 1001109605
!!!URL-scan: https://repozytorium.nifc.pl/islandora/object/pl-kozmzk%3A7453/datastream/PDF/view
!!!ONB-nifc:
**kern	**kern	**dynam
*part1	*part1	*part1
*staff2	*staff1	*
*I"Organo	*I"Organo	*
*clefF4	*clefG2	*
*k[b-e-]	*k[b-e-]	*
*M3/4	*M3/4	*
=1	=1	=1
!!LO:TX:a:B:t=Andantino.
(8GG\L	(4.b-\ 4.dd	p
8D\	.	.
8G\	.	.
8A\	8a\ 8cc	.
8B-\	4g/ 4b-	.
8c\J	.	.
=2	=2	=2
8d\L	2.f#X/ 2.a	.
8e-\	.	.
8d\	.	.
8A\	.	.
8d\	.	.
8c\J	.	.
=3	=3	=3
*	*^	*
8B-\L	8g/L	2d\	<
8F#X\	8a/	.	.
8G\	8b-/	.	.
8Fn\	8bn/	.	.
8E-\	8cc/	[4g\	.
8BBn\J	8dd/J	.	[
=4	=4	=4	=4
!	!	!	!LO:DY:a
8C/L	2ee-/)	2g\]	f
8D/	.	.	.
8C/	.	.	.
8GG/J	.	.	.
4C/)	4r	4ryy	.
=5	=5	=5	=5
!	!	!	!LO:DY:a
(8D\L	(4.dd/	2.r	fp
8F#X\J	.	.	.
4A\	.	.	.
.	8cc/	.	.
8d\L	8b-/L	.	.
8c\J	8a/J	.	.
=6	=6	=6	=6
8B-\L	8g/L	2d\	.
8c\	8f#X/	.	.
8B-\	8g/	.	.
8F#X\	8a/	.	.
8G\	8b-/	4g\	.
8E-\J	8cc/J	.	.
=7	=7	=7	=7
!	!	!	!LO:DY:a
2D\	8dd/L	(8b-\L	p
.	8b-/	8g\	.
.	8a/	8f#X\	.
.	8g/J	8en\J	.
4DD/	4f#X/	8d\L	.
.	.	[8c\J	.
=8	=8	=8	=8
2.GG/)	2.g/	8c\L]	.
.	.	8B-\	.
.	.	8A\	.
.	.	8B-\J	.
.	.	4G\)	.
=9	=9	=9	=9
!	!	!	!LO:DY:t=pf
2.r	2.r	(8d\L)	p
.	.	8A\	.
.	.	8d\	.
.	.	8c\	.
.	.	8B-\	.
.	.	8A\J	.
=10	=10	=10	=10
2.r	(8b-/L	8G\L	<
.	8a/	8A\J	.
.	8g/	4B-\	.
.	8a-X/	.	.
.	8g/	4Bn\	.
.	8f/J	.	[
=11	=11	=11	=11
!!LO:LB:g=original
(8C/L	2.e-/)	2.c\)	p
8GG/	.	.	.
8C/	.	.	.
8BB-/	.	.	.
8AA/	.	.	.
8GG/J)	.	.	.
=12	=12	=12	=12
(2FF#X/	(8d/L	2.c\	f
.	8e-/	.	.
.	8d/	.	.
.	8a/	.	.
4AA/	8g/	.	.
.	8f#X/J	.	.
=13	=13	=13	=13
4.BB-/	8g/L	2.d\	.
.	8a/	.	.
.	8g/	.	.
8GG/	8b-/	.	.
8AA/L	8a/	.	.
8BB-/J	8g/J	.	.
=14	=14	=14	=14
4C/	4a/	4e-\	p >
4C#X/	4g/	4en\	.
8D/L	4f#X/)	8d\L	.
8DD/J)	.	8c\J	]
*	*v	*v	*
=15	=15	=15
(8GG/L	[2.B-/ [2.g	] >
8E-/	.	.
8D/	.	.
8BB-/	.	.
8AA/	.	.
8BB-/J	.	]
=16	=16	=16
8GG/L	4B-/] 4g]	.
8AA/	.	.
8GG/	4r	.
8DD/J	.	.
[4GG^>/)	4r	.
=17	=17	=17
4GG/]	(>(4f/ 4dd	pp
4GG/	4e-/ 4cc	.
([4GG^>/	4d/ 4bn	.
=18	=18	=18
*	*^	*
8GG/L]	2cc/	2.e-\)	.
8AA-X/	.	.	.
8GG/	.	.	.
8CC/J)	.	.	.
[4GG^>/	4g/)	.	.
*	*v	*v	*
=19	=19	=19
*^	*	*
!	!	!	!LO:HP:a
(4G/	4GG\]	(4e-/	>
4F/	4GG\	4d/	.
4E-/	([4GG^\	4c/	.
=20	=20	=20	=20
2.D/)	8GG\L]	2.Bn/)	]
.	8AAn\	.	.
.	8GG\	.	.
.	8DD\J	.	.
.	[4GG^\)	.	.
=21	=21	=21	=21
2.E-/	4GG\]	(>4c/	pp <
.	4GG\	4G</	.
.	[4GG^\	4A</	[[
=22	=22	=22	=22
2.G/	2.GG;\] 2.D	2.Bn;/)	>]
*v	*v	*	*
==	==	==
*-	*-	*-
!!!system-decoration: {(s1,s2)}
!!!RDF**kern: > = above
!!!RDF**kern: < = below
!!!ENC: Kamil Watkowski
!!!END: 2021-08-09
